X: 1
T: Peter and Doreen Chiasson
C: Brenda Stubbert
M: C
L: 1/8
K: D
F>A (3AAA B>A F<A|F<A A>f e>d e<f|F>A (3AAA B>A F<A|d<f e>d B2 B<d:|
A>d (3ddd f>e d<f|B<e e>f g>f e>f|A>d (3ddd f>e d<f|e>d e<f e>d B<G|
A>d (3ddd f>e d<f|B<e e>f g>f e<g|f>e d>f e>d c<A|B<G A>F E>F G>E|]
